packages/icons/src/emoji/svg/computer.svg

<svg width="120" height="120" viewBox="0 0 120 120" fill="none" xmlns="http://www.w3.org/2000/svg">
<path d="M40.3127 79.1999H29.2877C27.1408 79.1999 25.3877 80.8311 25.3877 82.8374V85.303H72.4033V82.8374C72.4033 80.8405 70.6408 79.1999 68.4939 79.1999H57.1877V72.928L91.8377 72.9374C94.7721 72.9374 97.1814 70.528 97.1814 67.5936L97.1908 10.5374C97.1908 7.59365 94.7814 5.18428 91.8471 5.18428L5.9627 5.16553C3.01895 5.16553 0.60957 7.5749 0.60957 10.5093L0.59082 67.5749C0.59082 70.5186 3.0002 72.928 5.94395 72.928L40.5002 72.9374L40.3127 79.1999ZM85.2658 91.0593L13.4158 91.0405C12.4127 91.0405 11.4283 91.8374 11.2314 92.8218L6.60019 113.409C6.40332 114.384 7.54707 114.787 8.5502 114.787L90.1033 114.806C91.0971 114.806 92.0721 114.403 91.8752 113.428L87.4408 92.8311C87.2346 91.8655 86.2596 91.0593 85.2658 91.0593Z" fill="#B0BEC5"/>
<path d="M17.541 96.2625L81.6566 96.2718C82.6598 96.2718 83.4754 97.0874 83.4754 98.0906C83.4754 99.0937 82.6598 99.9093 81.6566 99.9093L17.541 99.8999C16.5473 99.8999 15.7223 99.0843 15.7223 98.0812C15.7223 97.0687 16.5473 96.2625 17.541 96.2625ZM83.4004 108.675L15.7973 108.656C14.7941 108.656 13.9785 107.841 13.9785 106.837C13.9785 105.834 14.7941 105.019 15.7973 105.019L83.4004 105.037C84.3941 105.037 85.2098 105.853 85.2098 106.856C85.2191 107.859 84.4035 108.675 83.4004 108.675Z" fill="white"/>
<path d="M117.197 107.147C113.053 110.475 107.288 108.647 103.547 103.069C99.8157 97.4812 97.1344 94.6031 100.519 92.3343C103.903 90.0656 109.2 90.4218 114.966 94.7624C119.391 98.0906 120.384 104.597 117.197 107.147Z" fill="#B0BEC5"/>
<path d="M40.3121 73.125H57.1871V75.9375H40.3121V73.125ZM6.59961 113.428H91.884V115.303H6.59961V113.428ZM117.215 107.147C117.215 107.147 113.09 110.981 107.531 107.156C102.356 103.594 99.4496 96.6375 99.1965 95.9719C99.1684 95.9906 102 97.2188 104.39 99.3375C105.815 100.594 108.45 104.091 111.328 105.891C113.737 107.4 116.475 107.391 117.215 107.147Z" fill="#78909C"/>
<path d="M14.2965 58.6969C12.2059 58.6969 10.4434 57.0094 10.4434 54.8344V17.8969C10.4434 15.7125 12.2152 13.7532 14.2965 13.7532H83.184C85.2559 13.7532 87.0559 15.7125 87.0559 17.8969V54.8344C87.0559 57.0188 85.2559 58.6969 83.184 58.6969H14.2965Z" fill="#78909C"/>
<mask id="mask0_212_307" style="mask-type:luminance" maskUnits="userSpaceOnUse" x="10" y="13" width="78" height="46">
<path d="M14.2965 58.6969C12.2059 58.6969 10.4434 57.0094 10.4434 54.8344V17.8969C10.4434 15.7125 12.2152 13.7532 14.2965 13.7532H83.184C85.2559 13.7532 87.0559 15.7125 87.0559 17.8969V54.8344C87.0559 57.0188 85.2559 58.6969 83.184 58.6969H14.2965Z" fill="white"/>
</mask>
<g mask="url(#mask0_212_307)">
<path d="M47.7281 11.7375L32.3156 63.3844L8.4375 63.1219V12.2532L47.7281 11.7375Z" fill="#ECEFF1"/>
</g>
<path d="M84.375 17.8125V54.375H13.125V17.8125H84.375ZM84.4781 13.125H12.9844C10.8188 13.125 8.4375 14.9625 8.4375 17.1844V54.8906C8.4375 57.1219 10.8188 59.0625 12.9844 59.0625H84.4688C86.625 59.0625 89.0625 57.1219 89.0625 54.8906V17.1844C89.0625 14.9531 86.8406 13.125 84.6937 13.125H84.4781Z" fill="#78909C"/>
</svg>

<svg xmlns="http://www.w3.org/2000/svg" fill="none" aria-hidden="true" data-slot="icon" viewBox="0 0 120 120"><path fill="#B0BEC5" d="M40.313 79.2H29.288c-2.147 0-3.9 1.631-3.9 3.637v2.466h47.015v-2.466c0-1.996-1.762-3.637-3.91-3.637H57.189v-6.272l34.65.01c2.934 0 5.343-2.41 5.343-5.344l.01-57.057c0-2.943-2.41-5.353-5.344-5.353L5.963 5.166C3.019 5.166.61 7.575.61 10.509L.59 67.575c0 2.944 2.41 5.353 5.354 5.353l34.556.01zm44.953 11.86-71.85-.02c-1.003 0-1.988.797-2.185 1.782l-4.63 20.587c-.198.975.946 1.378 1.95 1.378l81.552.019c.994 0 1.97-.403 1.772-1.378l-4.434-20.597c-.206-.966-1.181-1.772-2.175-1.772"/><path fill="#fff" d="m17.541 96.263 64.116.009a1.82 1.82 0 0 1 1.818 1.819 1.82 1.82 0 0 1-1.818 1.818L17.54 99.9a1.826 1.826 0 0 1-1.819-1.818 1.82 1.82 0 0 1 1.819-1.819m65.86 12.412-67.604-.019a1.82 1.82 0 0 1-1.819-1.819 1.82 1.82 0 0 1 1.82-1.818l67.602.018c.994 0 1.81.816 1.81 1.819a1.807 1.807 0 0 1-1.81 1.819"/><path fill="#B0BEC5" d="M117.197 107.147c-4.144 3.328-9.909 1.5-13.65-4.078-3.731-5.588-6.413-8.466-3.028-10.735 3.384-2.268 8.681-1.912 14.447 2.428 4.425 3.329 5.418 9.835 2.231 12.385"/><path fill="#78909C" d="M40.312 73.125h16.875v2.813H40.312zM6.6 113.428h85.284v1.875H6.6zm110.615-6.281s-4.125 3.834-9.684.009c-5.175-3.562-8.081-10.519-8.335-11.184-.028.019 2.804 1.247 5.194 3.366 1.425 1.256 4.06 4.753 6.938 6.553 2.409 1.509 5.147 1.5 5.887 1.256M14.297 58.697a3.855 3.855 0 0 1-3.854-3.863V17.897c0-2.184 1.772-4.144 3.854-4.144h68.887c2.072 0 3.872 1.96 3.872 4.144v36.937c0 2.185-1.8 3.863-3.872 3.863z"/><mask id="a" width="78" height="46" x="10" y="13" maskUnits="userSpaceOnUse" style="mask-type:luminance"><path fill="#fff" d="M14.297 58.697a3.855 3.855 0 0 1-3.854-3.863V17.897c0-2.184 1.772-4.144 3.854-4.144h68.887c2.072 0 3.872 1.96 3.872 4.144v36.937c0 2.185-1.8 3.863-3.872 3.863z"/></mask><g mask="url(#a)"><path fill="#ECEFF1" d="M47.728 11.738 32.316 63.384l-23.879-.262V12.253z"/></g><path fill="#78909C" d="M84.375 17.813v36.562h-71.25V17.813zm.103-4.688H12.984c-2.165 0-4.546 1.838-4.546 4.06V54.89c0 2.23 2.38 4.172 4.546 4.172H84.47c2.156 0 4.594-1.941 4.594-4.172V17.184c0-2.23-2.222-4.059-4.37-4.059z"/></svg>
